X: 2112
T: Mrs OLIPHANT OF CONDIE'S
C:
Q: "Strathspey."
R: Strathspey.
%R: strathspey
B: James Kerr "Merry Melodies" v.2 p.14 #112
Z: 2016 John Chambers <jc:trillian.mit.edu>
M: C
L: 1/16
K: G
ud2 |\
vBG3G3ud BcdB G2B2 | EA3A3G FD3D3d |\
BG3G3d BcdB G2g2 | eg3d3uc BG3G2 ::\
ud2 |\
vg3vaub3ug ae3g3ud |
eg3 d2(cB) aA3A3ud |\
[1 g3ab3g ae3g3ud | eg3d3c BG3G2 :|\
[2 bg3ae3 gd3 e2(dc) | Bg3d3c BG3G2 |]

%%sep 1 1 500
%%sep 1 1 500

